svg/600/outlined/mic_external_off-fill.svg

<svg xmlns="http://www.w3.org/2000/svg" width="48" height="48" viewBox="0 -960 960 960"><path d="M355.015-692.609 183.391-864.088q16.435-17 37.782-26.348 21.348-9.348 46.576-9.348 50.294 0 85.273 35.761Q388-828.262 388-778.001q0 27.862-8.565 49.91-8.565 22.047-24.42 35.482Zm457.986 457.131L740-308.479v-430.522q0-36.541-26.044-61.879t-62.478-25.338q-36.434 0-62.456 25.338-26.021 25.338-26.021 61.879v254.523L490-557.479v-181.723q0-66.585 47.056-113.584 47.055-46.998 114.022-46.998 66.966 0 114.444 46.979 47.479 46.978 47.479 113.963v503.364ZM834-26.956 563.001-297.955v69.173q0 70.483-48.794 119.241-48.795 48.76-118.327 48.76-70.532 0-119.207-48.76-48.674-48.758-48.674-119.241h-45.305l-43.391-428.436h64.001L18.956-842l46.522-46.522L880.522-73.478 834-26.956ZM396-133.782q39 0 66.5-28t27.5-67.116v-142.058l-111.13-111.13-26 253.304H301q0 39 28 67t67 28Z"/></svg>

<svg xmlns="http://www.w3.org/2000/svg" width="48" height="48" viewBox="0 -960 960 960"><path d="M355.01-692.61 183.39-864.09q16.44-17 37.78-26.35 21.35-9.34 46.58-9.34 50.29 0 85.27 35.76T388-778q0 27.86-8.57 49.91-8.56 22.05-24.42 35.48ZM813-235.48l-73-73V-739q0-36.54-26.04-61.88-26.05-25.34-62.48-25.34-36.44 0-62.46 25.34Q563-775.54 563-739v254.52l-73-73V-739.2q0-66.59 47.06-113.59 47.05-46.99 114.02-46.99 66.96 0 114.44 46.97Q813-805.83 813-738.84v503.36Zm21 208.52-271-271v69.18q0 70.48-48.79 119.24-48.8 48.76-118.33 48.76-70.53 0-119.21-48.76Q228-158.3 228-228.78h-45.31L139.3-657.22h64L18.96-842l46.52-46.52L880.52-73.48 834-26.96ZM396-133.78q39 0 66.5-28T490-228.9v-142.06L378.87-482.09l-26 253.31H301q0 39 28 67t67 28Z"/></svg>
